public/images/poses-lg/Bridge.svg

<svg width="800" height="800" fill="none" xmlns="http://www.w3.org/2000/svg"><g clip-path="url(#a)"><g clip-path="url(#b)"><path d="M634.199 558.319c.636 49.903 21.033 117.195 28.566 172.881 2.227 16.47-4.114 20.238-.118 31.468 2.424 6.816 8.906 11.318 16.139 11.291 17.203-.06 62.503.994 91.28.302 5.218-.126 14.035-8.114 9.154-9.95-28.259-10.626-43.492-14.115-54.636-16.99-16.344-4.214-29.864-21.546-30.015-38.41-.541-59.973 2.65-144.313-19.483-191.743-3.315-7.102-10.543-11.454-18.383-11.153-13.304.506-26.547 2.38-39.512 5.443-31.368 7.412-60.595 21.608-88.123 38.092-11.964 7.164-23.642 14.784-35.349 22.36-8.455 5.469-16.522 12.024-25.674 16.274-8.439 3.922-17.478 6.554-25.521 11.303-25.394 14.986-52.939 25.825-81.866 31.88-24.963 5.224-51.271 4.555-75.583 11.972-28.866 8.802-37.937 39.93-56.82 60.374-11.616 12.575-27.174 22.547-43.467 28.991-2.332.923-4.515 2.249-6.234 4.076-6.314 6.701-13.995 4.502-19.527 13.725-2.826-9.403-1.74.536-.871 7.253.49 3.816-2.93 1.099-4.711 4.508-.943 1.806-.898-.698 5.025-1.473 41.17-5.389 41.17 11.489 93.358 19.711 22.377 3.948 49.644-27.991 70.995-33.221 2.854-.681 5.789-1.563 8.871-2.667 33.343-11.768 70.588-27.534 105.307-43.534 3.747-1.723 14.431-6.021 23.625-9.09a22.561 22.561 0 0 1 1.86-.526c14.182-3.291 28.708-5.217 42.508-10.084 17.173-6.057 29.758-16.422 41.32-30.211 10.659-12.717 20.702-26.437 34.99-35.377 18.017-11.274 36.743-21.477 53.912-34.06" fill="#fff"/><path d="M634.199 558.319c.636 49.903 21.033 117.195 28.566 172.881 2.227 16.47-4.114 20.238-.118 31.468 2.424 6.816 8.906 11.318 16.139 11.291 17.203-.06 62.503.994 91.28.302 5.218-.126 14.035-8.114 9.154-9.95-28.259-10.626-43.492-14.115-54.636-16.99-16.344-4.214-29.864-21.546-30.015-38.41-.541-59.973 2.65-144.313-19.483-191.743-3.315-7.102-10.543-11.454-18.383-11.153-13.304.506-26.547 2.38-39.512 5.443-31.368 7.412-60.595 21.608-88.123 38.092-11.964 7.164-23.642 14.784-35.349 22.36-8.455 5.469-16.522 12.024-25.674 16.274-8.439 3.922-17.478 6.554-25.521 11.303-25.394 14.986-52.939 25.825-81.866 31.88-24.963 5.224-51.271 4.555-75.583 11.972-28.866 8.802-37.937 39.93-56.82 60.374-11.616 12.575-27.174 22.547-43.467 28.991-2.332.923-4.515 2.249-6.234 4.076-6.314 6.701-13.995 4.502-19.527 13.725-2.826-9.403-1.74.536-.871 7.253.49 3.816-2.93 1.099-4.711 4.508-.943 1.806-.898-.698 5.025-1.473 41.17-5.389 41.17 11.489 93.358 19.711 22.377 3.948 49.644-27.991 70.995-33.221 2.854-.681 5.789-1.563 8.871-2.667 33.343-11.768 70.588-27.534 105.307-43.534 3.747-1.723 14.431-6.021 23.625-9.09a22.561 22.561 0 0 1 1.86-.526c14.182-3.291 28.708-5.217 42.508-10.084 17.173-6.057 29.758-16.422 41.32-30.211 10.659-12.717 20.702-26.437 34.99-35.377 18.017-11.274 36.743-21.477 53.912-34.06" stroke="#000" stroke-width="5" stroke-miterlimit="10"/><path d="M634.199 558.319c.636 49.903 21.033 117.195 28.566 172.881 2.227 16.47-4.114 20.238-.118 31.468 2.424 6.816 8.906 11.318 16.139 11.291 17.203-.06 62.503.994 91.28.302 5.218-.126 14.035-8.114 9.154-9.95-28.259-10.626-43.492-14.115-54.636-16.99-16.344-4.214-29.864-21.546-30.015-38.41-.541-59.973 2.65-144.313-19.483-191.743-3.315-7.102-10.543-11.454-18.383-11.153-13.304.506-26.547 2.38-39.512 5.443-31.368 7.412-60.595 21.608-88.123 38.092-11.964 7.164-23.642 14.784-35.349 22.36-8.455 5.469-16.522 12.024-25.674 16.274-8.439 3.922-17.478 6.554-25.521 11.303-25.394 14.986-52.939 25.825-81.866 31.88-24.963 5.224-51.271 4.555-75.583 11.972-28.866 8.802-37.937 39.93-56.82 60.374-11.616 12.575-27.174 22.547-43.467 28.991-2.332.923-4.515 2.249-6.234 4.076-6.314 6.701-13.995 4.502-19.527 13.725-2.826-9.403-1.74.536-.871 7.253.49 3.816-2.93 1.099-4.711 4.508-.943 1.806-.898-.698 5.025-1.473 41.17-5.389 41.17 11.489 93.358 19.711 22.377 3.948 49.644-27.991 70.995-33.221 2.854-.681 5.789-1.563 8.871-2.667 33.343-11.768 70.588-27.534 105.307-43.534 3.747-1.723 14.431-6.021 23.625-9.09a22.561 22.561 0 0 1 1.86-.526c14.182-3.291 28.708-5.217 42.508-10.084 17.173-6.057 29.758-16.422 41.32-30.211 10.659-12.717 20.702-26.437 34.99-35.377 18.017-11.274 36.743-21.477 53.912-34.06" stroke="#000" stroke-width="5" stroke-miterlimit="10"/><path d="M436.518 602.933c26.057 23.422 21.654 62.101 20.144 90.43Z" fill="#fff"/><path d="M436.518 602.933c26.057 23.422 21.654 62.101 20.144 90.43" stroke="#000" stroke-width="5" stroke-miterlimit="10"/><path d="M436.518 602.933c26.057 23.422 21.654 62.101 20.144 90.43" stroke="#000" stroke-width="5" stroke-miterlimit="10"/><path d="M655.845 690.89s28.313-.948 38.637-9.645Z" fill="#fff"/><path d="M655.845 690.89s28.313-.948 38.637-9.645" stroke="#000" stroke-width="5" stroke-miterlimit="10"/><path d="M655.845 690.89s28.313-.948 38.637-9.645" stroke="#000" stroke-width="5" stroke-miterlimit="10"/><path d="M223.718 757.591c16.03-30.668 63.645-44.031 102.465-22.933 22.924 11.756 64.275 5.687 111.528 9.493 24.426 1.969 48.269 4.555 72.475 8.321 30.143 4.689 34.918-4.299 56.53-4.102 29.023.176 56.249 13.657 50.817 18.959-6.797 6.631-25.76 10.247-35.612 10.005-8.117-.198-41.172-3.983-48.308-3.764l-86.533 2.945s-164.126 4.511-212.14 3.959c-11.163-.13-14.516-12.805-11.478-22.216l.256-.667Z" fill="#fff" stroke="#000" stroke-width="5" stroke-miterlimit="10"/><path d="M223.718 757.591c16.03-30.668 63.645-44.031 102.465-22.933 22.924 11.756 64.275 5.687 111.528 9.493 24.426 1.969 48.269 4.555 72.475 8.321 30.143 4.689 34.918-4.299 56.53-4.102 29.023.176 56.249 13.657 50.817 18.959-6.797 6.631-25.76 10.247-35.612 10.005-8.117-.198-41.172-3.983-48.308-3.764l-86.533 2.945s-164.126 4.511-212.14 3.959c-11.163-.13-14.516-12.805-11.478-22.216l.256-.667ZM6 683.783v-.029" stroke="#000" stroke-width="5" stroke-miterlimit="10"/><path d="M174.987 760.674c-8.278 5.832-16.063 4.874-26.851 7.648-17.131 4.406-36.376-15.06-37.204-34.8-1.092-26.066 91.431-36.518 94.522-21.665 1.63 7.826-4.374 20.506-15.684 32.103-3.575 3.668-7.072 7.417-10.34 11.362l-4.443 5.352Z" fill="#fff" stroke="#000" stroke-width="5" stroke-miterlimit="10"/><path d="M174.987 760.674c-8.278 5.832-16.063 4.874-26.851 7.648-17.131 4.406-36.376-15.06-37.204-34.8-1.092-26.066 91.431-36.518 94.522-21.665 1.63 7.826-4.374 20.506-15.684 32.103-3.575 3.668-7.072 7.417-10.34 11.362l-4.443 5.352Z" stroke="#000" stroke-width="5" stroke-miterlimit="10"/><path d="M122.182 717.682c14.569-1.021 28.201 15.655 26.162 24.562-2.037 8.91-2.412 15.227.55 16.204 2.96.969 7.905.418 8.342-2.203.434-2.627-.794-8.47 4.318-8.662 5.108-.193 17.878 7.945 21.251 18.428 3.365 10.482-5.512 24.279-21.671 28.878-16.158 4.596-37.99-9.418-49.361-25.635-5.485-7.825-8.253-17.676-7.73-26.099.863-13.895 3.841-24.469 18.139-25.473Z" fill="#000" stroke="#000" stroke-width="5" stroke-miterlimit="10"/><path d="M241.21 686.638s13.908 2.648 8.782 18.207c-3.037 9.216-43.723 32.626-33.885 67.01" stroke="#000" stroke-width="5" stroke-miterlimit="10"/><path d="M21.724 771.133c-.42 10.719 3.042 23.612 20.882 24.457 13.506.64 34.819-13.54 43.584-13.78 8.76-.244 9.89 10.004 23.03 12.688 13.14 2.686 19.861-5.236 27.319-10.459 0 0 .873-25.506-12.09-30.715-12.969-5.204-17.569 1.603-28.697-2.453-13.533-4.932-8.303-25.407-26.37-32.152-12.884-4.807-24.219-2.95-31.259 4.434-11.736 12.313-15.65 28.808-16.399 47.98Z" fill="#000" stroke="#000" stroke-width="5" stroke-miterlimit="10"/></g></g><defs><clipPath id="a"><path fill="#fff" d="M0 0h800v800H0z"/></clipPath><clipPath id="b"><path fill="#fff" transform="translate(6 276)" d="M0 0h788v886H0z"/></clipPath></defs></svg>

<svg width="800" height="800" viewBox="0 0 800 800" fill="none" xmlns="http://www.w3.org/2000/svg">
<g clip-path="url(#clip0_298_12112)">
<g clip-path="url(#clip1_298_12112)">
<path d="M634.199 558.319C634.835 608.222 655.232 675.514 662.765 731.2C664.992 747.67 658.651 751.438 662.647 762.668C665.071 769.484 671.553 773.986 678.786 773.959C695.989 773.899 741.289 774.953 770.066 774.261C775.284 774.135 784.101 766.147 779.22 764.311C750.961 753.685 735.728 750.196 724.584 747.321C708.24 743.107 694.72 725.775 694.569 708.911C694.028 648.938 697.219 564.598 675.086 517.168C671.771 510.066 664.543 505.714 656.703 506.015C643.399 506.521 630.156 508.395 617.191 511.458C585.823 518.87 556.596 533.066 529.068 549.55C517.104 556.714 505.426 564.334 493.719 571.91C485.264 577.379 477.197 583.934 468.045 588.184C459.606 592.106 450.567 594.738 442.524 599.487C417.13 614.473 389.585 625.312 360.658 631.367C335.695 636.591 309.387 635.922 285.075 643.339C256.209 652.141 247.138 683.269 228.255 703.713C216.639 716.288 201.081 726.26 184.788 732.704C182.456 733.627 180.273 734.953 178.554 736.78C172.24 743.481 164.559 741.282 159.027 750.505C156.201 741.102 157.287 751.041 158.156 757.758C158.646 761.574 155.226 758.857 153.445 762.266C152.502 764.072 152.547 761.568 158.47 760.793C199.64 755.404 199.64 772.282 251.828 780.504C274.205 784.452 301.472 752.513 322.823 747.283C325.677 746.602 328.612 745.72 331.694 744.616C365.037 732.848 402.282 717.082 437.001 701.082C440.748 699.359 451.432 695.061 460.626 691.992C461.242 691.788 461.858 691.616 462.486 691.466C476.668 688.175 491.194 686.249 504.994 681.382C522.167 675.325 534.752 664.96 546.314 651.171C556.973 638.454 567.016 624.734 581.304 615.794C599.321 604.52 618.047 594.317 635.216 581.734" fill="white"/>
<path d="M634.199 558.319C634.835 608.222 655.232 675.514 662.765 731.2C664.992 747.67 658.651 751.438 662.647 762.668C665.071 769.484 671.553 773.986 678.786 773.959C695.989 773.899 741.289 774.953 770.066 774.261C775.284 774.135 784.101 766.147 779.22 764.311C750.961 753.685 735.728 750.196 724.584 747.321C708.24 743.107 694.72 725.775 694.569 708.911C694.028 648.938 697.219 564.598 675.086 517.168C671.771 510.066 664.543 505.714 656.703 506.015C643.399 506.521 630.156 508.395 617.191 511.458C585.823 518.87 556.596 533.066 529.068 549.55C517.104 556.714 505.426 564.334 493.719 571.91C485.264 577.379 477.197 583.934 468.045 588.184C459.606 592.106 450.567 594.738 442.524 599.487C417.13 614.473 389.585 625.312 360.658 631.367C335.695 636.591 309.387 635.922 285.075 643.339C256.209 652.141 247.138 683.269 228.255 703.713C216.639 716.288 201.081 726.26 184.788 732.704C182.456 733.627 180.273 734.953 178.554 736.78C172.24 743.481 164.559 741.282 159.027 750.505C156.201 741.102 157.287 751.041 158.156 757.758C158.646 761.574 155.226 758.857 153.445 762.266C152.502 764.072 152.547 761.568 158.47 760.793C199.64 755.404 199.64 772.282 251.828 780.504C274.205 784.452 301.472 752.513 322.823 747.283C325.677 746.602 328.612 745.72 331.694 744.616C365.037 732.848 402.282 717.082 437.001 701.082C440.748 699.359 451.432 695.061 460.626 691.992C461.242 691.788 461.858 691.616 462.486 691.466C476.668 688.175 491.194 686.249 504.994 681.382C522.167 675.325 534.752 664.96 546.314 651.171C556.973 638.454 567.016 624.734 581.304 615.794C599.321 604.52 618.047 594.317 635.216 581.734" stroke="black" stroke-width="5" stroke-miterlimit="10"/>
<path d="M634.199 558.319C634.835 608.222 655.232 675.514 662.765 731.2C664.992 747.67 658.651 751.438 662.647 762.668C665.071 769.484 671.553 773.986 678.786 773.959C695.989 773.899 741.289 774.953 770.066 774.261C775.284 774.135 784.101 766.147 779.22 764.311C750.961 753.685 735.728 750.196 724.584 747.321C708.24 743.107 694.72 725.775 694.569 708.911C694.028 648.938 697.219 564.598 675.086 517.168C671.771 510.066 664.543 505.714 656.703 506.015C643.399 506.521 630.156 508.395 617.191 511.458C585.823 518.87 556.596 533.066 529.068 549.55C517.104 556.714 505.426 564.334 493.719 571.91C485.264 577.379 477.197 583.934 468.045 588.184C459.606 592.106 450.567 594.738 442.524 599.487C417.13 614.473 389.585 625.312 360.658 631.367C335.695 636.591 309.387 635.922 285.075 643.339C256.209 652.141 247.138 683.269 228.255 703.713C216.639 716.288 201.081 726.26 184.788 732.704C182.456 733.627 180.273 734.953 178.554 736.78C172.24 743.481 164.559 741.282 159.027 750.505C156.201 741.102 157.287 751.041 158.156 757.758C158.646 761.574 155.226 758.857 153.445 762.266C152.502 764.072 152.547 761.568 158.47 760.793C199.64 755.404 199.64 772.282 251.828 780.504C274.205 784.452 301.472 752.513 322.823 747.283C325.677 746.602 328.612 745.72 331.694 744.616C365.037 732.848 402.282 717.082 437.001 701.082C440.748 699.359 451.432 695.061 460.626 691.992C461.242 691.788 461.858 691.616 462.486 691.466C476.668 688.175 491.194 686.249 504.994 681.382C522.167 675.325 534.752 664.96 546.314 651.171C556.973 638.454 567.016 624.734 581.304 615.794C599.321 604.52 618.047 594.317 635.216 581.734" stroke="black" stroke-width="5" stroke-miterlimit="10"/>
<path d="M436.518 602.933C462.575 626.355 458.172 665.034 456.662 693.363Z" fill="white"/>
<path d="M436.518 602.933C462.575 626.355 458.172 665.034 456.662 693.363" stroke="black" stroke-width="5" stroke-miterlimit="10"/>
<path d="M436.518 602.933C462.575 626.355 458.172 665.034 456.662 693.363" stroke="black" stroke-width="5" stroke-miterlimit="10"/>
<path d="M655.845 690.89C655.845 690.89 684.158 689.942 694.482 681.245Z" fill="white"/>
<path d="M655.845 690.89C655.845 690.89 684.158 689.942 694.482 681.245" stroke="black" stroke-width="5" stroke-miterlimit="10"/>
<path d="M655.845 690.89C655.845 690.89 684.158 689.942 694.482 681.245" stroke="black" stroke-width="5" stroke-miterlimit="10"/>
<path d="M223.718 757.591C239.748 726.923 287.363 713.56 326.183 734.658C349.107 746.414 390.458 740.345 437.711 744.151C462.137 746.12 485.98 748.706 510.186 752.472C540.329 757.161 545.104 748.173 566.716 748.37C595.739 748.546 622.965 762.027 617.533 767.329C610.736 773.96 591.773 777.576 581.921 777.334C573.804 777.136 540.749 773.351 533.613 773.57L447.08 776.515C447.08 776.515 282.954 781.026 234.94 780.474C223.777 780.344 220.424 767.669 223.462 758.258L223.718 757.591Z" fill="white" stroke="black" stroke-width="5" stroke-miterlimit="10"/>
<path d="M223.718 757.591C239.748 726.923 287.363 713.56 326.183 734.658C349.107 746.414 390.458 740.345 437.711 744.151C462.137 746.12 485.98 748.706 510.186 752.472C540.329 757.161 545.104 748.173 566.716 748.37C595.739 748.546 622.965 762.027 617.533 767.329C610.736 773.96 591.773 777.576 581.921 777.334C573.804 777.136 540.749 773.351 533.613 773.57L447.08 776.515C447.08 776.515 282.954 781.026 234.94 780.474C223.777 780.344 220.424 767.669 223.462 758.258L223.718 757.591Z" stroke="black" stroke-width="5" stroke-miterlimit="10"/>
<path d="M6 683.783V683.754" stroke="black" stroke-width="5" stroke-miterlimit="10"/>
<path d="M174.987 760.674C166.709 766.506 158.924 765.548 148.136 768.322C131.005 772.728 111.76 753.262 110.932 733.522C109.84 707.456 202.363 697.004 205.454 711.857C207.084 719.683 201.08 732.363 189.77 743.96C186.195 747.628 182.698 751.377 179.43 755.322L174.987 760.674Z" fill="white" stroke="black" stroke-width="5" stroke-miterlimit="10"/>
<path d="M174.987 760.674C166.709 766.506 158.924 765.548 148.136 768.322C131.005 772.728 111.76 753.262 110.932 733.522C109.84 707.456 202.363 697.004 205.454 711.857C207.084 719.683 201.08 732.363 189.77 743.96C186.195 747.628 182.698 751.377 179.43 755.322L174.987 760.674Z" stroke="black" stroke-width="5" stroke-miterlimit="10"/>
<path d="M122.182 717.682C136.751 716.661 150.383 733.337 148.344 742.244C146.307 751.154 145.932 757.471 148.894 758.448C151.854 759.417 156.799 758.866 157.236 756.245C157.67 753.618 156.442 747.775 161.554 747.583C166.662 747.39 179.432 755.528 182.805 766.011C186.17 776.493 177.293 790.29 161.134 794.889C144.976 799.485 123.144 785.471 111.773 769.254C106.288 761.429 103.52 751.578 104.043 743.155C104.906 729.26 107.884 718.686 122.182 717.682Z" fill="black" stroke="black" stroke-width="5" stroke-miterlimit="10"/>
<path d="M241.21 686.638C241.21 686.638 255.118 689.286 249.992 704.845C246.955 714.061 206.269 737.471 216.107 771.855" stroke="black" stroke-width="5" stroke-miterlimit="10"/>
<path d="M21.7244 771.133C21.3044 781.852 24.7656 794.745 42.6061 795.59C56.112 796.23 77.4246 782.05 86.1901 781.81C94.9491 781.566 96.0802 791.814 109.22 794.498C122.36 797.184 129.081 789.262 136.539 784.039C136.539 784.039 137.412 758.533 124.449 753.324C111.48 748.12 106.88 754.927 95.7516 750.871C82.2187 745.939 87.4492 725.464 69.3815 718.719C56.4981 713.912 45.1634 715.769 38.1233 723.153C26.387 735.466 22.4723 751.961 21.7244 771.133Z" fill="black" stroke="black" stroke-width="5" stroke-miterlimit="10"/>
</g>
</g>
<defs>
<clipPath id="clip0_298_12112">
<rect width="800" height="800" fill="white"/>
</clipPath>
<clipPath id="clip1_298_12112">
<rect width="788" height="886" fill="white" transform="translate(6 276)"/>
</clipPath>
</defs>
</svg>
